!!!!SEGMENT: pl-kk--kk-i-7--052-003_palestrina-giovanni-pierluigi-da--missa-de-sanctis-apostolis-sanctus.krn
!!!cenid: 16xx:873
!!!COM: Palestrina, Giovanni Pierluigi da
!!!COM-rismid: pe1904
!!!CDT: ~1525-1594/02/02
!!!CNT: Italian
!!!OPR: Missa de Sanctis Apostolis
!!!OTL: Sanctus
!!!OMV: 003
!!!PDT:
!!!AGN: Sacred; Mass
!!!SMS-siglum: PL-Kk
!!!SMS-shelfmark: Kk.I.7
!!!SMS-shelfwork: 052-003 M
!!!SMS-variant:
!!!SMS-altvar:
!!!NIFC-rismid: 300258129
!!!URL-scan: http://repozytorium.nifc.pl/skany/pl-kk-nut--i-7
!!!ONB-nifc: UWAGA: C (skan 0049-0050, s.90-92), A (0133-0134, s.86-88), T(0209-0210, s.80-82), B(0297-0298, s.80-82). Części Mszy: 1. Kyrie, 2. Et in terra, 3. Sanctus, 4. Agnus Dei. "Agnus II" rozpisane na 5 głosów. Głos dodatkowy zapisany w księdze T na stronie 82
**kern	**text	**kern	**text	**kern	**text	**kern	**text
*part4	*part4	*part3	*part3	*part2	*part2	*part1	*part1
*staff4	*staff4	*staff3	*staff3	*staff2	*staff2	*staff1	*staff1
*group1	*	*group1	*	*group1	*	*group1	*
*Ibass	*	*Itenor	*	*Ialto	*	*Isoprn	*
*I"BASSVS.	*	*I"TENOR.	*	*I"ALTVS.	*	*I"CANTVS.	*
*I'B	*	*I'T	*	*I'A	*	*I'S	*
*clefF3	*	*clefC3	*	*clefC2	*	*clefC1	*
*k[b-]	*	*k[b-]	*	*k[b-]	*	*k[b-]	*
*F:	*	*F:	*	*F:	*	*F:	*
*M2/1	*	*M2/1	*	*M2/1	*	*M2/1	*
*met(C|)	*	*met(C|)	*	*met(C|)	*	*met(C|)	*
=1-	=1-	=1-	=1-	=1-	=1-	=1-	=1-
!	!	!	!	!LO:TX:t=P:problem:przy kluczu B- b-	!	!	!
!LO:TX:t=P:problem:przy kluczu BB- B-	!	!	!	!LO:TX:t=P:problem:kreska pseudotaktowa	!	!	!
00r	.	00r	.	1r	.	1f	San-
*	*	*	*	*	*	*2\right	*
.	.	.	.	1c	San-	2g\	.
.	.	.	.	.	.	2a\	.
=2-	=2-	=2-	=2-	=2-	=2-	=2-	=2-
.	.	.	.	2d/	.	2f/	.
.	.	.	.	2e/	.	2g/	.
.	.	.	.	2c/	.	2a\	.
.	.	.	.	2d/	.	1b-	.
=3-	=3-	=3-	=3-	=3-	=3-	=3-	=3-
*	*	*	*	*2\right	*	*	*
!	!	!LO:TX:t=P:problem:kreska pseudotaktowa	!	!	!	!	!
00r	.	1rc	.	2e\	.	.	.
!	!	!	!	!	!	!LO:TX:t=P:problem:kreska pseudotaktowa	!
.	.	.	.	1f	.	2a\	.
.	.	1c	San-	.	.	1g	.
!	!	!	!	!LO:TX:t=P:problem:kreska pseudotaktowa	!	!	!
.	.	.	.	2e\	.	.	.
=4-	=4-	=4-	=4-	=4-	=4-	=4-	=4-
*	*	*2\right	*	*	*	*	*
.	.	2d\	.	2d,</	-ctus	2f/	-ctus
.	.	2e\	.	2c/	San-	2.g\	San-
.	.	2c\	.	2e\	.	.	.
.	.	.	.	.	.	4a\	.
!	!	!LO:TX:t=P:problem:kreska pseudotaktowa	!	!	!	!	!
.	.	2d\	.	2f\	.	4b-\	.
!	!	!	!	!	!	!LO:TX:t=P:problem:kreska pseudotaktowa	!
.	.	.	.	.	.	4a\	.
=5-	=5-	=5-	=5-	=5-	=5-	=5-	=5-
!LO:TX:t=P:problem:kreska pseudotaktowa	!	!	!	!	!	!	!
00rc	.	2e\	.	2g\	.	2.cc\	.
!	!	!	!	!LO:TX:t=P:problem:kreska pseudotaktowa	!	!	!
.	.	1f	.	2a\	.	.	.
.	.	.	.	.	.	4b-\	.
.	.	.	.	2f\	.	2a\	.
.	.	2e\	.	2.g\	.	2g\	.
=6-	=6-	=6-	=6-	=6-	=6-	=6-	=6-
!	!	!LO:TX:t=P:problem:kreska pseudotaktowa	!	!	!	!	!
.	.	1d	-ctus	.	.	2a\	.
.	.	.	.	4f\	.	.	.
!	!	!	!	!	!	!LO:TX:t=P:problem:kreska pseudotaktowa	!
.	.	.	.	1f	.	2f/	.
.	.	1.c	San-	.	.	1g	.
!	!	!	!	!LO:TX:t=P:problem:kreska pseudotaktowa	!	!	!
.	.	.	.	2e\	.	.	.
=7-	=7-	=7-	=7-	=7-	=7-	=7-	=7-
!	!	!	!	!	!	!LO:TX:t=P:problem:kreska pseudotaktowa	!
1F	San-	.	.	2.f\	.	1a	-ctus.
.	.	2d\	.	.	.	.	.
.	.	.	.	4e/	.	.	.
*2\right	*	*	*	*	*	*	*
2G\	.	2B-/	.	2d/	-ctus	2r	.
2A\	.	2c/	.	1a	San-	1cc\	San-
=8-	=8-	=8-	=8-	=8-	=8-	=8-	=8-
!	!	!LO:TX:t=P:problem:kreska pseudotaktowa	!	!	!	!	!
2F\	.	1d	.	.	.	.	.
!LO:TX:t=P:problem:kreska pseudotaktowa	!	!	!	!LO:TX:t=P:problem:kreska pseudotaktowa	!	!LO:TX:t=P:problem:kreska pseudotaktowa	!
2G\	.	.	.	2g\	.	2b-\	.
2A\	.	2c\	.	2.f\	.	2a\	.
1B-	.	2.d\	.	.	.	2f/	.
.	.	.	.	4e/	.	.	.
=9-	=9-	=9-	=9-	=9-	=9-	=9-	=9-
.	.	.	.	2d/	.	2g\	.
.	.	4e\	.	.	.	.	.
2A\	.	1f	.	2c/	.	2a\	.
!	!	!	!	!LO:TX:t=P:problem:kreska pseudotaktowa	!	!	!
1G	.	.	.	1B-	.	1b-	.
.	.	2e\	.	.	.	.	.
=10-	=10-	=10-	=10-	=10-	=10-	=10-	=10-
!LO:TX:t=P:problem:kreska pseudotaktowa	!	!	!	!	!	!LO:TX:t=P:problem:kreska pseudotaktowa	!
1F	-ctus	2f,\	-ctus	2c/	.	1a	.
.	.	2F/	San-	1f	.	.	.
*	*ij	*	*	*	*	*	*
1C	San-	2G/	.	.	.	2.cc\	.
!	!	!LO:TX:t=P:problem:kreska pseudotaktowa	!	!	!	!	!
.	.	2A/	.	2e\	.	.	.
.	.	.	.	.	.	4b-\	.
=11-	=11-	=11-	=11-	=11-	=11-	=11-	=11-
2D/	.	2F/	.	2f\	.	2a\	.
!LO:TX:t=P:problem:kreska pseudotaktowa	!	!	!	!	!	!LO:TX:t=P:problem:kreska pseudotaktowa	!
2E/	.	2G/	.	4e/	.	2g/	.
.	.	.	.	4d/	.	.	.
2F/	.	2A/	.	2c/	.	1f	.
2D/	.	1B-	.	2d/	.	.	.
=12-	=12-	=12-	=12-	=12-	=12-	=12-	=12-
!	!	!	!	!LO:TX:t=P:problem:kreska pseudotaktowa	!	!	!
2E/	.	.	.	0c	-ctus.	2g/	.
2F/	.	2A/	.	.	.	1f	.
*lig	*	*	*	*	*	*	*
!	!	!LO:TX:t=P:problem:kreska pseudotaktowa	!	!	!	!	!
1C	-ctus	1G	-ctus	.	.	.	.
.	.	.	.	.	.	2e/	.
*	*Xij	*	*	*	*	*	*
!	!	!	!	!LO:LB:g=original	!	!	!
=13-	=13-	=13-	=13-	=13-	=13-	=13-	=13-
!	!	!	!	!	!	!LO:TX:t=P:problem:kreska pseudotaktowa	!
!LO:TX:t=P:problem:kreska pseudotaktowa	!	!	!	!	!	!LO:SIC:v:t=custos f	!
1F	.	2rA	.	2rd	.	1f	-ctus
.	.	2F/	Do-	1c	Do-	.	.
*Xlig	*	*	*	*	*	*	*
!LO:TX:a:t=3.	!	!	!	!	!	!	!
0r	.	2A/	-mi-	.	.	2re	.
!	!	!	!	!LO:TX:t=P:problem:kreska pseudotaktowa	!	!	!
.	.	2B-/	-n(us)	2d/	-mi-	2f/	Do-
=14-	=14-	=14-	=14-	=14-	=14-	=14-	=14-
.	.	2c\	De-	2e\	-n(us)	2a\	-mi-
!	!	!	!	!	!	!LO:TX:t=P:problem:kreska pseudotaktowa	!
.	.	2d\	-(us)	2f\	DE-	2b-\	-n(us)
!LO:TX:t=P:problem:kreska pseudotaktowa	!	!	!	!	!	!	!
1r	.	2A/	Sab-	2e\	.	2cc\	DE-
.	.	2B-/	-ba-	4d/	-us	2dd\	-us
.	.	.	.	4e/	.	.	.
=15-	=15-	=15-	=15-	=15-	=15-	=15-	=15-
!	!	!LO:TX:t=P:problem:kreska pseudotaktowa	!	!	!	!	!
1F	Do-	1c	-oth.	4f\	.	2.a\	Sab-
.	.	.	.	4g\	.	.	.
.	.	.	.	1a	Sa-	.	.
.	.	.	.	.	.	4b-\	.
!	!	!LO:TX:t=P:problem:kreska pseudotaktowa	!	!	!	!	!
!	!	!LO:LB:g=original	!	!	!	!	!
2A\	-mi-	00r	.	.	.	2cc\	.
2B-\	-n(us)	.	.	4g\	.	4b-\	.
!	!	!	!	!LO:TX:t=P:problem:kreska pseudotaktowa	!	!LO:TX:t=P:problem:kreska pseudotaktowa	!
.	.	.	.	4f\	.	4a\	.
=16-	=16-	=16-	=16-	=16-	=16-	=16-	=16-
2c\	DE-	.	.	2e\	.	2g/	.
!LO:TX:t=P:problem:kreska pseudotaktowa	!	!	!	!	!	!	!
2d\	-us	.	.	2.a\	.	2f/	.
2A\	Sab-	.	.	.	.	2.a\	.
.	.	.	.	4g\	.	.	.
2B-\	.	.	.	1f	.	.	.
.	.	.	.	.	.	4a\	-ba-
=17-	=17-	=17-	=17-	=17-	=17-	=17-	=17-
2.c\	.	.	.	.	.	2g,/	-oth.
.	.	.	.	2e\	-ba-	2.cc\	Sab-
!LO:TX:t=P:problem:kreska pseudotaktowa	!	!	!	!	!	!	!
4B-\	.	.	.	.	.	.	.
!	!	!	!	!LO:TX:t=P:problem:kreska pseudotaktowa	!	!	!
4A\	.	1F	Do-	0f	-oth.	.	.
4G\	.	.	.	.	.	4b-\	.
4F/	.	.	.	.	.	4a\	.
!	!	!	!	!	!	!LO:TX:t=P:problem:kreska pseudotaktowa	!
4E/	.	.	.	.	.	4g\	.
=18-	=18-	=18-	=18-	=18-	=18-	=18-	=18-
1D	.	2A/	-mi-	.	.	4f/	.
.	.	.	.	.	.	4e/	.
.	.	2B-/	-n(us)	.	.	2d/	.
2C/	.	2c\	De-	0r	.	2e/	.
!	!	!LO:TX:t=P:problem:kreska pseudotaktowa	!	!	!	!	!
2BB-/	.	2d\	-us	.	.	1f	.
=19-	=19-	=19-	=19-	=19-	=19-	=19-	=19-
*lig	*	*	*	*	*	*	*
1D	-ba-	2A/	Sab-	.	.	.	.
.	.	2B-/	.	.	.	4e/	-ba-
.	.	.	.	.	.	4d/	.
!LO:TX:t=P:problem:kreska pseudotaktowa	!	!	!	!	!	!LO:TX:t=P:problem:kreska pseudotaktowa	!
1C	-oth.	2.c/	.	2rd	.	1e,<	-oth.
.	.	.	.	2c/	Do-	.	.
.	.	4B-/	.	.	.	.	.
*Xlig	*	*	*	*	*	*	*
!LO:LB:g=original	!	!	!	!	!	!	!
=20-	=20-	=20-	=20-	=20-	=20-	=20-	=20-
!LO:TX:t=P:problem:kreska pseudotaktowa	!	!	!	!	!	!	!
00r	.	4A/	.	2e\	-mi-	1c	Do-
.	.	4G/	.	.	.	.	.
!	!	!LO:TX:t=P:problem:kreska pseudotaktowa	!	!	!	!	!
.	.	2F/	.	2f\	-n(us)	.	.
.	.	2c/	.	2g\	DE-	2e/	-mi-
!	!	!	!	!LO:TX:t=P:problem:kreska pseudotaktowa	!	!	!
.	.	2F/	.	2a\	-us	2f/	-n(us)
=21-	=21-	=21-	=21-	=21-	=21-	=21-	=21-
.	.	1.c	.	2e\	Sab-	2g\	DE-
.	.	.	.	2f\	.	2a\	-(us)
.	.	.	.	2g\	.	2e/	Sab-
.	.	2d\	-ba-	1f	.	2f/	-ba-
=22-	=22-	=22-	=22-	=22-	=22-	=22-	=22-
!	!	!LO:TX:t=P:problem:kreska pseudotaktowa	!	!	!	!LO:TX:t=P:problem:kreska pseudotaktowa	!
2r	.	1c	-oth.	.	.	0g	-oth.
2c\	Ple-	.	.	4e/	-ba-	.	.
.	.	.	.	4d/	.	.	.
*	*	*	*	*lig	*	*	*
2c\	-ni	1rg	.	1e	-oth.	.	.
!LO:TX:t=P:problem:kreska pseudotaktowa	!	!	!	!	!	!	!
2c\	sunt	.	.	.	.	.	.
=23-	=23-	=23-	=23-	=23-	=23-	=23-	=23-
!	!	!	!	!LO:TX:t=P:problem:kreska pseudotaktowa	!	!LO:TX:t=P:problem:kreska pseudotaktowa	!
2.d\	cae-	2r	.	1f	.	00r	.
.	.	2f\	Ple-	.	.	.	.
4c,\	-li	.	.	.	.	.	.
*	*	*	*	*Xlig	*	*	*
2B-\	et	2f\	-ni	1rcc	.	.	.
!LO:TX:t=P:problem:kreska pseudotaktowa	!	!LO:TX:t=P:problem:kreska pseudotaktowa	!	!	!	!	!
2A\	ter-	2f\	sunt	.	.	.	.
=24-	=24-	=24-	=24-	=24-	=24-	=24-	=24-
2G\	-ra	2.g\	cae-	2r	.	.	.
1c	glo-	.	.	2g\	Ple-	.	.
.	.	4f\	.	.	.	.	.
.	.	2e\	.	2g\	-ni	.	.
!LO:TX:t=P:problem:kreska pseudotaktowa	!	!	!	!LO:TX:t=P:problem:kreska pseudotaktowa	!	!	!
2B-\	-ri-	2d\	.	2g\	sunt	.	.
=25-	=25-	=25-	=25-	=25-	=25-	=25-	=25-
!	!	!LO:TX:t=P:problem:kreska pseudotaktowa	!	!	!	!	!
2A\	-a	1c	-li,	2.a\	cae-	2r	.
4F\	.	.	.	.	.	2cc\	Ple-
!LO:TX:t=P:problem:kreska pseudotaktowa	!	!	!	!	!	!	!
4G\	.	.	.	4g\	-li	.	.
4A\	.	00r	.	2f\	et	2cc\	-ni
4B-\	.	.	.	.	.	.	.
!	!	!	!	!	!	!LO:TX:t=P:problem:kreska pseudotaktowa	!
4c\	.	.	.	2e\	ter-	2cc\	sunt
4A\	.	.	.	.	.	.	.
=26-	=26-	=26-	=26-	=26-	=26-	=26-	=26-
2B-\	.	.	.	2d/	-ra	2.dd\	cae-
2G\	.	.	.	1g	glo-	.	.
!	!	!	!	!	!	!LO:TX:t=P:problem:kreska pseudotaktowa	!
!	!	!	!	!	!	!LO:SIC:v:t=custos b-	!
.	.	.	.	.	.	4cc,\	-li
!	!	!	!	!	!	!LO:LB:g=original	!
1B-	tu-	.	.	.	.	2b-\	et
!	!	!	!	!LO:TX:t=P:problem:kreska pseudotaktowa	!	!	!
!	!	!	!	!LO:SIC:v:t=custos e	!	!	!
.	.	.	.	2f\	-ri-	2a\	ter-
!	!	!	!	!LO:LB:g=original	!	!	!
=27-	=27-	=27-	=27-	=27-	=27-	=27-	=27-
!LO:TX:t=P:problem:kreska pseudotaktowa	!	!	!	!	!	!	!
1c	-a	.	.	2e/	-a.	2g,<\	-ra
.	.	.	.	4c/	.	1cc	glo-
.	.	.	.	4d/	.	.	.
!	!	!LO:TX:t=P:problem:kreska pseudotaktowa	!	!	!	!	!
00r	.	1r	.	4e/	.	.	.
.	.	.	.	4f/	.	.	.
.	.	.	.	4g/	.	2b-\	-ri-
!	!	!	!	!LO:TX:t=P:problem:kreska pseudotaktowa	!	!	!
.	.	.	.	4e/	.	.	.
=28-	=28-	=28-	=28-	=28-	=28-	=28-	=28-
.	.	2r	.	4f\	tu-	2a\	-a
.	.	.	.	4g\	.	.	.
.	.	1f	glo-	1a	.	4f/	glo-
!	!	!	!	!	!	!LO:TX:t=P:problem:kreska pseudotaktowa	!
.	.	.	.	.	.	4g/	.
.	.	.	.	.	.	4a\	.
.	.	.	.	.	.	4b-\	.
!	!	!	!	!LO:TX:t=P:problem:kreska pseudotaktowa	!	!	!
.	.	2e\	-ri-	2g\	-a	2cc\	.
=29-	=29-	=29-	=29-	=29-	=29-	=29-	=29-
.	.	2d\	-a	0f	glo-	4b-\	.
.	.	.	.	.	.	4a\	.
.	.	4B-/	.	.	.	1dd	.
.	.	4c/	.	.	.	.	.
!LO:TX:t=P:problem:kreska pseudotaktowa	!	!	!	!	!	!	!
0r	.	4d\	.	.	.	.	.
.	.	4e\	.	.	.	.	.
.	.	4f\	.	.	.	4cc\	.
!	!	!LO:TX:t=P:problem:kreska pseudotaktowa	!	!	!	!LO:TX:t=P:problem:kreska pseudotaktowa	!
.	.	4d\	.	.	.	4b-\	.
=30-	=30-	=30-	=30-	=30-	=30-	=30-	=30-
.	.	2e\	.	2g\	-ri-	2cc\	-ri-
.	.	2.f\	.	2a\	-a	2.dd\	-a
1F	O-	.	.	2f\	tu-	.	.
.	.	4e/	.	.	.	4cc\	.
.	.	2c/	tu-	1a	.	1cc	Tu-
=31-	=31-	=31-	=31-	=31-	=31-	=31-	=31-
!	!	!LO:TX:t=P:problem:kreska pseudotaktowa	!	!	!	!	!
!	!	!LO:SIC:v:t=custos c	!	!	!	!	!
2F\	-san-	1d	.	.	.	.	.
!LO:TX:t=P:problem:kreska pseudotaktowa	!	!	!	!	!	!	!
2G\	-na	.	.	4g\	.	2bn\	.
!	!	!	!	!LO:TX:t=P:problem:kreska pseudotaktowa	!	!	!
.	.	.	.	4f\	.	.	.
!	!	!LO:LB:g=original	!	!	!	!LO:TX:t=P:problem:kreska pseudotaktowa	!
2A\	in	2c,\	-â.	2e,/	-a	1cc	-a.
!LO:TX:t=P:problem:kreska pseudotaktowa	!	!	!	!	!	!	!
2F\	ex-	2f\	O-	2a\	O-	.	.
=32-	=32-	=32-	=32-	=32-	=32-	=32-	=32-
2G\	-cel-	2e\	-san-	2g\	-san-	1rdd	.
!	!	!LO:TX:t=P:problem:kreska pseudotaktowa	!	!	!	!	!
2A\	.	2c\	-na	2.f\	-na	.	.
2.B-\	.	2d\	in	.	.	2r	.
.	.	.	.	4e/	.	.	.
.	.	1f	ex-	4d/	.	2f/	O-
!LO:TX:t=P:problem:kreska pseudotaktowa	!	!	!	!	!	!	!
4A\	.	.	.	4c/	.	.	.
=33-	=33-	=33-	=33-	=33-	=33-	=33-	=33-
!LO:TX:t=P:problem:kreska pseudotaktowa	!	!	!	!LO:TX:t=P:problem:kreska pseudotaktowa	!	!	!
1G	.	.	.	1B-	.	2g\	-san-
.	.	2e\	.	.	.	2g\	-na
!LO:TX:t=P:problem:kreska pseudotaktowa	!	!	!	!	!	!	!
1F	-sis.	2f\	-cel-	2r	.	2a\	in
!	!	!	!	!	!	!LO:TX:t=P:problem:kreska pseudotaktowa	!
.	.	2d\	.	2f\	O-	2f/	ex-
=34-	=34-	=34-	=34-	=34-	=34-	=34-	=34-
!LO:TX:t=P:problem:kreska pseudotaktowa	!	!	!	!	!	!	!
!LO:SIC:v:t=custos B-	!	!	!	!	!	!	!
1rc	.	1c	.	2e/	-san-	2g\	-cel-
.	.	.	.	2c/	-na	2a\	.
!LO:LB:g=original	!	!LO:TX:t=P:problem:kreska pseudotaktowa	!	!	!	!	!
2rE	.	1B-	-sis	2d/	in	2.b-y\	.
!LO:TX:t=P:problem:kreska pseudotaktowa	!	!	!	!	!	!	!
2BB-/	O-	.	.	1f	ex-	.	.
.	.	.	.	.	.	4a\	.
=35-	=35-	=35-	=35-	=35-	=35-	=35-	=35-
2BB-/	-san-	1r	.	.	.	1g	.
2C/	-na	.	.	2e\	-cel-	.	.
!	!	!	!	!LO:TX:t=P:problem:kreska pseudotaktowa	!	!LO:TX:t=P:problem:kreska pseudotaktowa	!
2D/	in	2rA	.	1f	-ſis	1f	-sis
!LO:TX:t=P:problem:kreska pseudotaktowa	!	!	!	!	!	!	!
2BB-/	ex-	2F/	O-	.	.	.	.
=36-	=36-	=36-	=36-	=36-	=36-	=36-	=36-
2D/	-cel-	2F/	-san-	2rd	.	0r	.
!	!	!LO:TX:t=P:problem:kreska pseudotaktowa	!	!	!	!	!
2E/	.	2G/	-na	2c/	O-	.	.
2.F/	.	2A/	in	2c/	-san-	.	.
.	.	2F/	ex-	2d/	-na	.	.
8E/L	.	.	.	.	.	.	.
!LO:TX:t=P:problem:kreska pseudotaktowa	!	!	!	!	!	!	!
8D/J	.	.	.	.	.	.	.
=37-	=37-	=37-	=37-	=37-	=37-	=37-	=37-
2C/	.	2G/	-cel-	2e/	in	2re	.
!	!	!LO:TX:t=P:problem:kreska pseudotaktowa	!	!	!	!	!
*	*	*	*	*	*	*	*ij
2F\	.	2A/	.	2c/	ex-	2f/	O-
2D/	.	1B-	.	2d/	-cel-	2f/	-san-
2G\	.	.	.	2e/	.	2g\	-na
=38-	=38-	=38-	=38-	=38-	=38-	=38-	=38-
!LO:TX:t=P:problem:kreska pseudotaktowa	!	!	!	!	!	!	!
1F,	-sis	1A	.	1.f	.	2a\	in
!	!	!	!	!	!	!LO:TX:t=P:problem:kreska pseudotaktowa	!
.	.	.	.	.	.	2f/	ex-
2C/	in	1c	.	.	.	2g\	-cel-
2C/	ex-	.	.	2e/	.	2a\	.
=39-	=39-	=39-	=39-	=39-	=39-	=39-	=39-
0BB-	-cel-	0f	.	0d	.	0b-	.
=40-	=40-	=40-	=40-	=40-	=40-	=40-	=40-
0Fl;	-ſis.	0fl;	-sis.	0cl;	-sis.	0al;	-sis
*	*	*	*	*	*	*	*Xij
!	!	!	!	!LO:LB:g=original	!	!LO:PB:g=original	!
=41||	=41||	=41||	=41||	=41||	=41||	=41||	=41||
*M2/1	*	*M2/1	*	*M2/1	*	*M2/1	*
*met(C|)	*	*met(C|)	*	*met(C|)	*	*met(C|)	*
!LO:TX:a:t=Benedict(us) Tacet	!	!LO:TX:t=P:problem:kreska pseudotaktowa	!	!	!	!LO:TX:a:t=à 3.	!
0ryy	.	00r	.	1c	Be-	00r	.
*	*	*	*	*lig	*	*	*
.	.	.	.	1e	-ne-	.	.
=42-	=42-	=42-	=42-	=42-	=42-	=42-	=42-
0ryy	.	.	.	1f	.	.	.
*	*	*	*	*Xlig	*	*	*
.	.	.	.	1g	-di-	.	.
=43-	=43-	=43-	=43-	=43-	=43-	=43-	=43-
0ryy	.	1F	Be-	2.a\	.	00r	.
.	.	.	.	8g\L	.	.	.
.	.	.	.	8f\J	.	.	.
*	*	*lig	*	*	*	*	*
.	.	1A	-ne-	2e\	.	.	.
!	!	!	!	!LO:TX:t=P:problem:kreska pseudotaktowa	!	!	!
.	.	.	.	2f\	-ctus	.	.
=44-	=44-	=44-	=44-	=44-	=44-	=44-	=44-
0ryy	.	1B-	.	2g\	qui	.	.
.	.	.	.	1f	.	.	.
*	*	*Xlig	*	*	*	*	*
.	.	1c	.	.	.	.	.
.	.	.	.	2e\	Ve-	.	.
=45-	=45-	=45-	=45-	=45-	=45-	=45-	=45-
!	!	!	!	!	!	!LO:TX:t=P:problem:kreska pseudotaktowa	!
0ryy	.	2.d\	-di-	2f\	.	1r	.
.	.	.	.	2.a\	.	.	.
.	.	8c/L	.	.	.	.	.
.	.	8B-/J	.	.	.	.	.
.	.	2A/	.	.	.	1f	Be-
.	.	.	.	4g\	.	.	.
!	!	!LO:TX:t=P:problem:kreska pseudotaktowa	!	!	!	!	!
!	!	!LO:SIC:v:t=custos c	!	!	!	!	!
.	.	2B-/	.	2f\	.	.	.
!	!	!LO:LB:g=original	!	!	!	!	!
=46-	=46-	=46-	=46-	=46-	=46-	=46-	=46-
*	*	*	*	*	*	*lig	*
0ryy	.	2c\	.	2e\	.	1a	-ne-
!	!	!	!	!LO:TX:t=P:problem:kreska pseudotaktowa	!	!	!
.	.	2d\	.	2f\	.	.	.
!	!	!LO:TX:t=P:problem:kreska pseudotaktowa	!	!	!	!	!
.	.	1G	-ctus	2.g\	.	1b-	.
.	.	.	.	4f\	.	.	.
*	*	*	*	*	*	*Xlig	*
=47-	=47-	=47-	=47-	=47-	=47-	=47-	=47-
0ryy	.	2rA	.	4e/	.	1cc	-di-
.	.	.	.	4d/	.	.	.
.	.	2A/	Be-	2e/	.	.	.
!	!	!	!	!LO:TX:t=P:problem:kreska pseudotaktowa	!	!	!
.	.	4B-/	-ne-	0d	-nit.	2.dd\	.
.	.	4c/	.	.	.	.	.
.	.	4d/	.	.	.	.	.
!	!	!LO:TX:t=P:problem:kreska pseudotaktowa	!	!	!	!	!
.	.	4e/	.	.	.	8cc\L	.
!	!	!	!	!	!	!LO:TX:t=P:problem:kreska pseudotaktowa	!
.	.	.	.	.	.	8b-\J	.
=48-	=48-	=48-	=48-	=48-	=48-	=48-	=48-
0ryy	.	2f\	.	.	.	2a,\	-ctus
.	.	2d\	.	.	.	2b-\	qui
.	.	2e\	-di-	1r	.	2.cc\	Ve-
.	.	1f	.	.	.	.	.
.	.	.	.	.	.	4b-\	.
=49-	=49-	=49-	=49-	=49-	=49-	=49-	=49-
0ryy	.	.	.	1c	Be-	2a\	.
!	!	!LO:TX:t=P:problem:kreska pseudotaktowa	!	!	!	!	!
.	.	2e\	ctus	.	.	2.g/	.
*	*	*lig	*	*lig	*	*	*
.	.	1c	qui	1e	-ne-	.	.
.	.	.	.	.	.	4e/	.
.	.	.	.	.	.	2.a/	.
=50-	=50-	=50-	=50-	=50-	=50-	=50-	=50-
0ryy	.	1d	.	1f	.	.	.
.	.	.	.	.	.	4g/	.
.	.	.	.	.	.	1f	.
*	*	*Xlig	*	*Xlig	*	*	*
.	.	1c	ve-	1g	-di-	.	.
!	!	!	!	!	!	!LO:TX:t=P:problem:kreska pseudotaktowa	!
.	.	.	.	.	.	2e/	.
=51-	=51-	=51-	=51-	=51-	=51-	=51-	=51-
!	!	!LO:TX:t=P:problem:kreska pseudotaktowa	!	!	!	!	!
0ryy	.	1F	-nit	2.a\	-ctus	4f/	.
.	.	.	.	.	.	4g/	.
.	.	.	.	.	.	4a/	.
.	.	.	.	8g\L	.	4b-/	.
.	.	.	.	8f\J	.	.	.
.	.	0rA	.	2e\	.	2.cc\	.
!	!	!	!	!LO:TX:t=P:problem:kreska pseudotaktowa	!	!	!
.	.	.	.	2f\	qui	.	.
.	.	.	.	.	.	4a\	.
=52-	=52-	=52-	=52-	=52-	=52-	=52-	=52-
0ryy	.	.	.	2.g\	ve-	4b-\	.
.	.	.	.	.	.	4cc\	.
.	.	.	.	.	.	1dd	.
.	.	.	.	8f\L	.	.	.
.	.	.	.	8e\J	.	.	.
!	!	!LO:TX:t=P:problem:kreska pseudotaktowa	!	!	!	!	!
.	.	1rc	.	2d/	.	.	.
!	!	!	!	!LO:TX:t=P:problem:kreska pseudotaktowa	!	!	!
!	!	!	!	!LO:SIC:v:t=custos f	!	!	!
.	.	.	.	2e/	.	4cc\	.
.	.	.	.	.	.	4b-\	.
!	!	!	!	!LO:LB:g=original	!	!	!
=53-	=53-	=53-	=53-	=53-	=53-	=53-	=53-
!	!	!	!	!	!	!LO:TX:t=P:problem:kreska pseudotaktowa	!
0ryy	.	1F	Be-	2.f\	.	1a	-nit
.	.	.	.	8e/L	.	.	.
.	.	.	.	8d/J	.	.	.
*	*	*lig	*	*	*	*	*
.	.	1A	-ne-	2c/	.	1rdd	.
.	.	.	.	2e\	.	.	.
=54-	=54-	=54-	=54-	=54-	=54-	=54-	=54-
0ryy	.	1B-	.	4d/	.	1f	Be-
.	.	.	.	4e/	.	.	.
.	.	.	.	4f/	.	.	.
!	!	!	!	!LO:TX:t=P:problem:kreska pseudotaktowa	!	!	!
.	.	.	.	4d/	.	.	.
*	*	*Xlig	*	*	*	*lig	*
.	.	2c\	-di-	2e\	.	1a	-ne-
.	.	1d	.	1f	.	.	.
=55-	=55-	=55-	=55-	=55-	=55-	=55-	=55-
0ryy	.	.	.	.	.	1b-	.
.	.	4c/	.	4e/	.	.	.
!	!	!	!	!LO:TX:t=P:problem:kreska pseudotaktowa	!	!	!
.	.	4B-/	.	4d/	.	.	.
*	*	*	*	*	*	*Xlig	*
.	.	2A/	.	2c/	-nit,	2cc\	-di-
!	!	!LO:TX:t=P:problem:kreska pseudotaktowa	!	!	!	!	!
.	.	2B-/	.	1f	Be-	1dd	.
=56-	=56-	=56-	=56-	=56-	=56-	=56-	=56-
0ryy	.	1G	.	.	.	.	.
.	.	.	.	2e\	-ne-	4cc\	.
.	.	.	.	.	.	4b-\	.
.	.	2F,</	-ctus	2f\	-dic-	2a\	-ctus
!	!	!	!	!	!	!LO:TX:t=P:problem:kreska pseudotaktowa	!
!	!	!	!	!LO:TX:t=P:problem:kreska pseudotaktowa	!	!LO:SIC:v:t=custos cc	!
.	.	2G/	Be-	2d/	-tus	2b-\	qui
!	!	!	!	!	!	!LO:LB:g=original	!
=57-	=57-	=57-	=57-	=57-	=57-	=57-	=57-
0ryy	.	4A/	-ne-	1.c	qui	2.cc\	Ve-
.	.	4B-/	.	.	.	.	.
.	.	4c/	.	.	.	.	.
!	!	!LO:TX:t=P:problem:kreska pseudotaktowa	!	!	!	!	!
.	.	4d/	.	.	.	8b-\L	.
.	.	.	.	.	.	8a\J	.
.	.	4e\	.	.	.	4g\	.
.	.	4f\	.	.	.	4a\	.
.	.	2.g\	-di-	2B-/	.	2b-\	.
=58-	=58-	=58-	=58-	=58-	=58-	=58-	=58-
0ryy	.	.	.	1d	Ve-	2a\	.
.	.	4f\	.	.	.	.	.
.	.	1f	-ctus	.	.	4g/	.
.	.	.	.	.	.	4f/	.
!	!	!	!	!LO:TX:t=P:problem:kreska pseudotaktowa	!	!LO:TX:t=P:problem:kreska pseudotaktowa	!
.	.	.	.	1c	-nit	0g	-nit
.	.	4e\	qui	.	.	.	.
.	.	4d\	.	.	.	.	.
=59-	=59-	=59-	=59-	=59-	=59-	=59-	=59-
0ryy	.	1e	ve-	2r	.	.	.
.	.	.	.	2g\	in	.	.
.	.	2e,\	-nit	2g\	No-	00r	.
!	!	!	!	!LO:TX:t=P:problem:kreska pseudotaktowa	!	!	!
.	.	2c\	in	2g\	-mi-	.	.
=60-	=60-	=60-	=60-	=60-	=60-	=60-	=60-
0ryy	.	2c\	no-	2.a\	-ne	.	.
.	.	2c\	-mi-	.	.	.	.
.	.	.	.	4g\	.	.	.
!	!	!LO:TX:t=P:problem:kreska pseudotaktowa	!	!	!	!	!
!	!	!LO:SIC:v:t=custos B-	!	!	!	!	!
.	.	1d	-ne	4f\	.	.	.
.	.	.	.	4e\	.	.	.
.	.	.	.	2f\	.	.	.
=61-	=61-	=61-	=61-	=61-	=61-	=61-	=61-
0ryy	.	2B-/	Do-	2d,</	.	.	.
!	!	!	!	!LO:TX:t=P:problem:kreska pseudotaktowa	!	!	!
.	.	2A/	.	2f\	Do-	.	.
!	!	!	!	!	!	!LO:TX:t=P:problem:kreska pseudotaktowa	!
.	.	2.G/	.	2e/	.	0r	.
.	.	.	.	4d/	.	.	.
.	.	4A/	.	4c/	.	.	.
=62-	=62-	=62-	=62-	=62-	=62-	=62-	=62-
0ryy	.	4B-/	.	4d/	.	.	.
.	.	4A/	.	4e/	.	.	.
.	.	4A/	.	1f	.	.	.
.	.	8G/L	.	.	.	.	.
.	.	8F/J	.	.	.	.	.
.	.	1G	.	.	.	2r	.
.	.	.	.	4e/	.	2g\	in
.	.	.	.	4d/	.	.	.
=63-	=63-	=63-	=63-	=63-	=63-	=63-	=63-
0ryy	.	2.c\	.	2e/	.	2g\	No-
!	!	!	!	!LO:TX:t=P:problem:kreska pseudotaktowa	!	!	!
.	.	.	.	2c/	-mi-	2g\	-mi-
.	.	4c\	-mi-	.	.	.	.
!	!	!LO:TX:t=P:problem:kreska pseudotaktowa	!	!	!	!LO:TX:t=P:problem:kreska pseudotaktowa	!
.	.	1F	-ni	2c/	-ni	1a	-ne
.	.	.	.	2c/	Do-	.	.
=64-	=64-	=64-	=64-	=64-	=64-	=64-	=64-
0ryy	.	2rA	.	2d/	.	2f/	Do-
.	.	2A/	in	4c/	.	2e/	.
.	.	.	.	8d/L	.	.	.
!	!	!	!	!LO:TX:t=P:problem:kreska pseudotaktowa	!	!	!
!	!	!	!	!LO:SIC:v:t=custos f	!	!	!
.	.	.	.	8e/J	.	.	.
!	!	!	!	!LO:LB:g=original	!	!	!
.	.	1d	No-	1.f	.	4d/	.
.	.	.	.	.	.	4e/	.
.	.	.	.	.	.	4f/	.
.	.	.	.	.	.	4g/	.
=65-	=65-	=65-	=65-	=65-	=65-	=65-	=65-
0ryy	.	2d\	-mi-	.	.	4a\	.
.	.	.	.	.	.	4b-\	.
!	!	!LO:TX:t=P:problem:kreska pseudotaktowa	!	!	!	!LO:TX:t=P:problem:kreska pseudotaktowa	!
.	.	2c\	-ne	2e\	-mi-	2cc\	.
!	!	!	!	!LO:TX:t=P:problem:kreska pseudotaktowa	!	!	!
.	.	4B-/	Do-	1f	-ni	2.dd\	.
.	.	4A/	.	.	.	.	.
.	.	4B-/	.	.	.	.	.
.	.	4c/	.	.	.	4cc\	.
=66-	=66-	=66-	=66-	=66-	=66-	=66-	=66-
0ryy	.	4d\	.	1r	.	2b-\	.
.	.	4e\	.	.	.	.	.
.	.	1f	.	.	.	2a\	-mi-
*	*	*4\right	*	*	*	*lig	*
.	.	.	.	2r	.	1g	-ni
.	.	4e\	.	2g\	in	.	.
!	!	!LO:TX:t=P:problem:kreska pseudotaktowa	!	!	!	!	!
.	.	4d\	.	.	.	.	.
*	*	*4\left	*	*	*	*	*
=67-	=67-	=67-	=67-	=67-	=67-	=67-	=67-
!	!	!	!	!	!	!LO:TX:t=P:problem:kreska pseudotaktowa	!
0ryy	.	2e\	.	2g\	No-	1c	.
!	!	!	!	!LO:TX:t=P:problem:kreska pseudotaktowa	!	!	!
.	.	2e\	-mi-	2g\	-mi-	.	.
*	*	*	*	*	*	*Xlig	*
!	!	!LO:TX:t=P:problem:kreska pseudotaktowa	!	!	!	!	!
.	.	1f	-ni	1a	-ne	2r	.
.	.	.	.	.	.	2cc\	in
=68-	=68-	=68-	=68-	=68-	=68-	=68-	=68-
0ryy	.	2r	.	2.f\	Do-	2cc\	No-
.	.	2f\	in	.	.	2cc\	-mi-
.	.	.	.	4e/	.	.	.
!	!	!	!	!	!	!LO:TX:t=P:problem:kreska pseudotaktowa	!
.	.	2f\	No-	4d/	.	1dd	-ne
.	.	.	.	4c/	.	.	.
.	.	2f\	-mi-	4B-/	.	.	.
!	!	!	!	!LO:TX:t=P:problem:kreska pseudotaktowa	!	!	!
.	.	.	.	4A/	.	.	.
=69-	=69-	=69-	=69-	=69-	=69-	=69-	=69-
0ryy	.	1g	-ne	2G/	.	2.b-\	Do-
.	.	.	.	1g	.	.	.
.	.	.	.	.	.	4a\	.
.	.	2e-X\	Do-	.	.	4b-\	.
.	.	.	.	.	.	4a\	.
!	!	!	!	!LO:TX:t=P:problem:kreska pseudotaktowa:między nutą a kropką	!	!	!
.	.	2d\	.	2.f\	.	4g\	.
.	.	.	.	.	.	4f/	.
=70-	=70-	=70-	=70-	=70-	=70-	=70-	=70-
0ryy	.	1c	.	.	.	1g	.
.	.	.	.	8e\L	.	.	.
.	.	.	.	8d\J	.	.	.
.	.	.	.	2e\	.	.	.
.	.	2.F/	.	2.f\	.	2.a\	.
.	.	4F/	-mi-	4f\	-mi-	4a\	mi-
=71-	=71-	=71-	=71-	=71-	=71-	=71-	=71-
0ryy	.	0cl;	-ni.	0el;	-ni.	0gl;	-ni.
!	!	!	!	!	!	!LO:LB:g=original	!
=72||	=72||	=72||	=72||	=72||	=72||	=72||	=72||
!LO:TX:t=P:problem:kreska pseudotaktowa	!	!	!	!LO:TX:t=P:problem:kreska pseudotaktowa	!	!	!
1r	.	1B-	O-	00r	.	00r	.
2r	.	2B-/	-san-	.	.	.	.
!LO:TX:t=P:problem:kreska pseudotaktowa	!	!LO:TX:t=P:problem:kreska pseudotaktowa	!	!	!	!	!
2F\	O-	2c\	-na	.	.	.	.
=73-	=73-	=73-	=73-	=73-	=73-	=73-	=73-
2F\	-san-	2d\	in	.	.	.	.
2G\	-na	2B-/	ex-	.	.	.	.
2A\	in	2c\	-cel-	.	.	.	.
!LO:TX:t=P:problem:kreska pseudotaktowa	!	!	!	!	!	!	!
2F\	ex-	1d	.	.	.	.	.
=74-	=74-	=74-	=74-	=74-	=74-	=74-	=74-
!	!	!	!	!	!	!LO:TX:t=P:problem:kreska pseudotaktowa	!
2G\	-cel-	.	.	2r	.	0rg	.
!	!	!LO:TX:t=P:problem:kreska pseudotaktowa	!	!	!	!	!
2A\	.	2c\	.	2f\	O-	.	.
2B-\	.	2d\	.	2f\	-san-	.	.
2G\	.	2e\	.	2g\	-na	.	.
=75-	=75-	=75-	=75-	=75-	=75-	=75-	=75-
!LO:TX:t=P:problem:kreska pseudotaktowa	!	!	!	!	!	!	!
1F	-sis.	2.f\	.	1.a	in	2re	.
.	.	.	.	.	.	2f/	O-
.	.	4e\	.	.	.	.	.
!LO:TX:t=P:problem:kreska pseudotaktowa	!	!	!	!	!	!	!
00r	.	2d\	.	.	.	2f/	-san-
!	!	!	!	!LO:TX:t=P:problem:kreska pseudotaktowa	!	!	!
.	.	4c/	.	2e\	ex-	2g/	-na
.	.	4B-/	.	.	.	.	.
=76-	=76-	=76-	=76-	=76-	=76-	=76-	=76-
.	.	2A/	.	2.f\	-cel-	2a\	in
.	.	2B-/	.	.	.	2f/	ex-
.	.	.	.	4d/	.	.	.
.	.	2G/	.	2e\	.	2g\	-cel-
!	!	!LO:TX:t=P:problem:kreska pseudotaktowa	!	!	!	!	!
.	.	2F/	.	2f\	.	2a\	.
=77-	=77-	=77-	=77-	=77-	=77-	=77-	=77-
!	!	!	!	!LO:TX:t=P:problem:kreska pseudotaktowa	!	!	!
.	.	4G/	.	0d	-sis.	1.b-	.
.	.	4A/	.	.	.	.	.
.	.	4B-/	.	.	.	.	.
.	.	4c/	.	.	.	.	.
*	*ij	*	*	*	*	*	*
1B-	O-	4d\	.	.	.	.	.
.	.	4e\	.	.	.	.	.
.	.	1f	.	.	.	2a\	.
!	!	!	!	!LO:LB:g=original	!	!	!
=78-	=78-	=78-	=78-	=78-	=78-	=78-	=78-
!	!	!	!	!LO:TX:t=P:problem:kreska pseudotaktowa	!	!	!
2B-\	-san-	.	.	0r	.	1g	.
!LO:TX:t=P:problem:kreska pseudotaktowa	!	!LO:TX:t=P:problem:kreska pseudotaktowa	!	!	!	!	!
2c\	-na	2e\	.	.	.	.	.
!	!	!	!	!	!	!LO:TX:t=P:problem:kreska pseudotaktowa	!
2.d\	in	2f,\	-sis	.	.	0f	-sis.
.	.	2B-/	O-	.	.	.	.
4c\	ex-	.	.	.	.	.	.
=79-	=79-	=79-	=79-	=79-	=79-	=79-	=79-
2B-\	-cel-	2B-/	-san-	2r	.	.	.
!LO:TX:t=P:problem:kreska pseudotaktowa	!	!	!	!	!	!	!
2A\	.	2c/	-na	2f\	O-	.	.
2B-\	.	2d\	in	2f\	-san-	0r	.
2G\	.	2B-/	ex-	2g\	-na	.	.
=80-	=80-	=80-	=80-	=80-	=80-	=80-	=80-
!LO:TX:t=P:problem:kreska pseudotaktowa	!	!	!	!	!	!	!
1F	-sis	2c\	-cel-	2a\	in	.	.
*	*Xij	*	*	*	*	*	*
!	!	!	!	!LO:TX:t=P:problem:kreska pseudotaktowa	!	!	!
.	.	2d\	.	2f\	ex-	.	.
!LO:LB:g=original	!	!	!	!	!	!	!
00r	.	2e\	.	2g\	-cel-	2re	.
.	.	4d\	.	2a\	.	2f/	O-
.	.	4c\	.	.	.	.	.
=81-	=81-	=81-	=81-	=81-	=81-	=81-	=81-
.	.	2B-/	.	2.b-\	.	2f/	-san-
!	!	!LO:TX:t=P:problem:kreska pseudotaktowa	!	!	!	!	!
!	!	!LO:SIC:v:t=custos d	!	!	!	!	!
.	.	2G/	.	.	.	2g/	-na
.	.	.	.	8a\L	.	.	.
!	!	!	!	!LO:TX:t=P:problem:kreska pseudotaktowa	!	!	!
.	.	.	.	8g\J	.	.	.
.	.	2.d\	.	2f\	.	2a\	in
.	.	.	.	2a\	.	2f/	ex-
.	.	4c/	.	.	.	.	.
=82-	=82-	=82-	=82-	=82-	=82-	=82-	=82-
.	.	2B-/	.	2g\	.	2g\	-cel-
.	.	2A/	.	1f	.	2a\	.
0r	.	1G	.	.	.	1.b-	.
!	!	!	!	!LO:TX:t=P:problem:kreska pseudotaktowa	!	!	!
.	.	.	.	2e\	.	.	.
=83-	=83-	=83-	=83-	=83-	=83-	=83-	=83-
!	!	!LO:TX:t=P:problem:kreska pseudotaktowa	!	!	!	!	!
.	.	1F	-sis	4d/	.	.	.
.	.	.	.	4c/	.	.	.
.	.	.	.	1f	.	2a\	.
!LO:TX:t=P:problem:kreska pseudotaktowa	!	!	!	!	!	!	!
1r	.	2.c/	in	.	.	2g/	.
!	!	!	!	!LO:TX:t=P:problem:kreska pseudotaktowa	!	!	!
.	.	.	.	2e\	.	2.a\	.
.	.	4B-/	ex-	.	.	.	.
=84-	=84-	=84-	=84-	=84-	=84-	=84-	=84-
2rE	.	2A/	-cel-	2c/	.	.	.
.	.	.	.	.	.	4g/	.
!LO:TX:t=P:problem:kreska pseudotaktowa	!	!	!	!	!	!	!
2BB-/	O-	2B-/	.	1d	.	1f	.
2BB-/	-san-	1G	.	.	.	.	.
2C/	-na	.	.	4c/	.	2e/	.
!	!	!	!	!LO:TX:t=P:problem:kreska pseudotaktowa	!	!	!
.	.	.	.	4B-/	.	.	.
=85-	=85-	=85-	=85-	=85-	=85-	=85-	=85-
2D/	in	2F/	-sis	2A/	.	[0fl;	-sis.
!LO:TX:t=P:problem:kreska pseudotaktowa	!	!LO:TX:t=P:problem:kreska pseudotaktowa	!	!	!	!	!
2BB-/	ex-	2B-/	.	2.d/	.	.	.
2.D/	-cel-	2A/	O-	.	.	.	.
.	.	.	.	4c/	.	.	.
.	.	2d\	-san-	2B-/	.	.	.
4E/	.	.	.	.	.	.	.
=86-	=86-	=86-	=86-	=86-	=86-	=86-	=86-
*lig	*	*	*	*	*	*	*
1F	.	2c/	-na	2A/	.	0f_	.
.	.	1B-	.	2d/	.	.	.
!	!	!	!	!LO:TX:t=P:problem:kreska pseudotaktowa	!	!	!
1BB-	.	.	.	1c	.	.	.
!	!	!LO:TX:t=P:problem:kreska pseudotaktowa	!	!	!	!	!
.	.	2A/	in	.	.	.	.
*Xlig	*	*	*	*	*	*	*
=87-	=87-	=87-	=87-	=87-	=87-	=87-	=87-
!LO:TX:b:t=Agnus Dei // Vertat	!	!	!	!	!	!	!
[0F;l	-sis.	2.d\	ex-	2.B-/	.	0f_	.
.	.	4c/	.	4c/	.	.	.
.	.	1B-	-cel-	1d	.	.	.
=88-	=88-	=88-	=88-	=88-	=88-	=88-	=88-
!	!	!LO:TX:b:t=Agnus Dei // Vertat	!	!	!	!	!
0F]	.	0Al;	-sis.	0cl;	-sis.	0f]	.
==	==	==	==	==	==	==	==
*-	*-	*-	*-	*-	*-	*-	*-
!!!system-decoration: [g1]
!!!RDF**kern: > = above
!!!RDF**kern: < = below
!!!RDF**kern: l = terminal long
!!!AIN: 1 alto 1 bass 1 soprn 1 tenor
!!!ENC: Andrzej Kubiczek
!!!END: 2021-03-17
!!!ENC: Berenika Jozajtis
!!!END: 2021-03-01
